X:1
T:If the Lord himself had not been on our side
T:If the Lord himself had not been on our side (William Knapp)
C:William Knapp
Z:Text: Ps. 124 (BCP)
%%score [ 1 2 3 4 ]
L:1/8
M:3/2
K:Gmin
V:1 treble nm="SOPRANO" snm="S."
V:2 treble nm="ALTO" snm="A."
V:3 treble-8 transpose=-12 nm="TENOR" snm="T."
V:4 bass nm="BASS" snm="B."
V:1
 z12 | z12 | z12 | d3 ^c d4 D4 | G12 | B6 A2 B4 | G4 (A6 G2) | ^F8 d2 d2 | c8 A4 | B8 z4 | %10
w: |||If the Lord him-|self|had not been|on our _|side, now may|Is- rael|say,|
 B3 B (B2 c2) d4 | d12 | d6 c2 B4 | c4 (c6 B2) | A8 B4 | (A4 G4) (A2 Bc) | c8 A4 | B4 B4 z4 | z12 | %19
w: If the Lord _ him-|self|had not been|on our _|side, when|men _ rose _ _|up a-|gainst us;||
 z12 | z12 | z8 G3 A | B6 A2 B4 | A4 A4 G2 A2 | (B2 A2 G2 ^F2 G2 A2 | B6) A2 G4 | F6 G2 (=E3 D) | %27
w: ||Yea, the|wa- ters had|drown’d us and the|stream _ _ _ _ _|_ had gone|o- ver our _|
 D8 |: B3 B | B6 A2 (B3 c) | d4 d4 d2 d2 | (G2 A2 B2 c2 B2 A2 | G2 F2 G2) A2 B4 | A6 G2 ^F4 |1 %34
w: soul,|Yea, the|wa- ters had _|drown’d us, and the|stream _ _ _ _ _|_ _ _ had gone|o- ver our|
 G8 :|2 G12 ||[M:2/2] z8 | z8 | z8 | z8 | z8 | z8 | z8 | z8 | z8 | z8 | z4 z2"^[Soprano]" B2 | %47
w: soul.|soul.|||||||||||The|
 (G2 A2 B2) G2 | ^F3 E D4 | (G2 ^F2) G2 A2 | D4 ^F4 | G8 |:"^Cho:" B4 A4 | B2 c2 d2 c2 | d8 | %55
w: snare _ _ is|bro- ken and|we _ are de-|li- ver-|ed.|Our help|stand- eth in the|name,|
 d4 c4 | d2 c2 B2 A2 | B2 c2 d2 c2 | B4 G2 G2 | ^F4 d4 | c8 | B4 (A3 G) | G8 :| %63
w: our help|stand- eth in the,|stand- eth in the|name of the|Lord, who|made|heav’n and _|earth.|
V:2
 z12 | z12 | G3 ^F G4 G,4 | D8 D4 | D12 | D6 D2 D4 | G4 E8 | D8 F2 F2 | F8 F4 | F8 z4 | %10
w: ||If the Lord him-|self, the|Lord|had not been|on our|side, now may|Is- rael|say,|
 F3 F F4 G4 | ^F12 | D6 D2 D4 | G4 E8 | D8 D4 | (F4 G4) (^F2 G2) | A8- A2 F2 | F4 F4 z4 | z12 | %19
w: If the Lord him-|self|had not been|on our|side, when|men _ rose _|up _ a-|gainst us;||
 z12 | z12 | z12 | z12 | z12 | z12 | z12 | z12 | z8 |: G3 G | G6 A2 G4 | ^F4 D4 D2 D2 | D12- | %32
w: |||||||||Yea, the|wa- ters had|drown’d us, and the|stream|
 D6 D2 D4 | E6 E2 D4 |1 D8 :|2 D12 ||[M:2/2] z8 | z8 | z8 | z8 | z8 | z8 | z8 | z8 | z8 | z8 | z8 | %47
w: _ had gone|o- ver our|soul.|soul.||||||||||||
 z8 | z8 | z8 | z8 | z8 |: z8 | G4 ^F4 | G2 A2 G2 F2 | F8 | F4 F4 | F2 F2 G2 A2 | G4 D2 D2 | %59
w: ||||||Our help|stand- eth in the|name,|our help|stand- eth in the|name of the|
 D4 D4 | E8 | D6 D2 | D8 :| %63
w: Lord, who|made|heav’n and|earth.|
V:3
 z12 | d3 ^c d4 D4 | G8 B3 B | A6 A2 B2 c2 | d12 | d6 c2 B4 | c4 (c6 B2) | A8 B2 B2 | c8 c4 | %9
w: |If the Lord him-|self had not|been, the Lord him-|self|had not been|on our _|side, now may|Is- rael|
 d8 z4 | d3 ^c (d2 =c2) B4 | A12 | B6 A2 B4 | G4 (A6 G2) | ^F8 B4 | c8 (d2 =e2) | f8- f2 e2 | %17
w: say,|If the Lord _ him-|self|had not been|on our _|side, when|men rose _|up _ a-|
 d4 d4 z4 | z12 | z12 | z12 | z12 | z12 | z12 | z12 | z12 | z12 | z8 |: d3 d | d6 c2 B4 | %30
w: gainst us;|||||||||||Yea, the|wa- ters had|
 A4 A4 B2 c2 | (d2 c2 B2 A2 B2 c2 | d6) c2 B4 | c6 B2 (A3 G) |1 G8 :|2 G12 || %36
w: drown’d us, and the|stream _ _ _ _ _|_ had gone|o- ver our _|soul.|soul.|
[M:2/2]"^[Tenor]" z4 z2 A2 | (BcBA B2) A2 | G2 c2 F4 | z8 | z8 | z8 | z8 | z8 | z8 | z8 | z8 | z8 | %48
w: But|prais- * * * * ed|be the Lord,||||||||||
 z8 | z8 | z8 | z8 |: G4 ^F4 | G2 A2 B2 A2 | B8 | B4 A4 | B2 c2 d2 c2 | d8- | d4 B2 B2 | A4 B4 | %60
w: ||||Our help|stand- eth in the|name,|our help|stand- eth in the|name|_ of the|Lord, who|
 (A6 G2) | G4 ^F4 | G8 :| %63
w: made _|heav’n and|earth.|
V:4
 G,3 ^F, G,4 G,,4 | D,8 D,4 | (E,3 D, C,4) G,4 | D,8 D,4 | (B,,3 A,, G,,8) | G,6 ^F,2 G,4 | %6
w: If the Lord him-|self, the|Lord _ _ him-|self, the|Lord _ _|had not been|
 E,4 C,8 | D,8 B,,2 B,,2 | F,8 F,4 | B,8 z4 | B,3 A, (B,2 A,2) G,4 | D,12 | G,6 ^F,2 G,4 | %13
w: on our|side, now may|Is- rael|say,|If the Lord _ him-|self|had not been|
 E,4 C,8 | D,8 G,4 | (F,4 E,4) (D,2 C,2) | F,8 F,,4 | B,,4 B,,4 B,,2 B,,2 | (F,3 G, F,3) E, D,4 | %19
w: on our|side, when|men _ rose _|up a-|gainst us; they had|swal- * * low- ed,|
 (G,3 A, B,3) A, (G,2 ^F,2) | G,8 G,,4 | D,8 z4 | z12 | z12 | z12 | z12 | z12 | z8 |: G,3 G, | %29
w: swal- * * low- ed _|us up|quick:|||||||Yea, the|
 G,6 ^F,2 G,4 | D,4 D,4 G,2 A,2 | (B,2 A,2 G,2 ^F,2 G,2 A,2 | B,6) A,2 G,4 | C,6 C,2 D,4 |1 %34
w: wa- ters had|drown’d us, and the|stream _ _ _ _ _|_ had gone|o- ver our|
 G,,8 :|2 G,,12 ||[M:2/2] z8 | z8 | z4 z2 D,2 | (E,F,E,D, E,2) D,2 | C,2 F,2 B,,4 | B,,4 F,4 | %42
w: soul.|soul.|||But|prais- * * * * ed|be the Lord:|our soul|
 F,2 F,2 B,4 | B,2 A,2 G,2 F,2 | E,2 D,2 C,2 B,,2 | F,4 F,,2 F,,2 | B,,4 B,,2 z2 | z8 | z8 | z8 | %50
w: is es- cap’d,|ev- en as a|bird out of the|snare of the|fowl- er.||||
 z8 | z8 |: z8 | G,,4 D,4 | G,2 F,2 E,2 F,2 | B,,8 | %56
w: |||Our help|stand- eth in the|name,|
"^Notes: The parts are identified in the source (at the start of this anthem) as Cantus - Medius - Tenor - Bass: theMedius part is printed in the alto clef. Indications of voicing for solos, which have been added to the present editionwhere given in square brackets, are absent from the source, where the voicing is clearly shown by the presence ofall four staves throughout the piece, with rests for the other three parts in each solo. The natural on the C in thetenor part in the second half of beat 2, bar 11 is editorial: this note has no accidental in the source." B,,4 F,4 | %57
w: our help|
 B,2 A,2 G,2 ^F,2 | G,4 G,,2 G,,2 | D,4 B,,4 | C,8 | D,6 [D,,D,]2 | G,,8 :| %63
w: stand- eth in the|name of the|Lord, who|made|heav’n and|earth.|

